X: 42588
T: Where Is The Cat?
R: slide
M: 12/8
K: Gmajor
|:DED G2D E2D G3|DED G2B A2G E3|
DED G2D E2D G2A|BdB c2B ABG E3:|
|:BAB d2B AGE c3|BAB d2B ABG E3|
BAB d2B AGE c3|ege d2B ABG E3:|

